!!!!SEGMENT: pl-kc--40102-iii-1-saf--002-039_zielenski-mikolaj--communiones-totius-anni-feria-secunda-paschae-surrexit-dominus.krn
!!!cenid: 16xx:1570
!!!COM: Zieleński, Mikołaj
!!!COM-rismID: pe30013481
!!!CDT: <1611->1611
!!!CNT: Polish
!!!GTL: Communiones totius anni
!!!OTL: Feria secunda Paschae/Surrexit Dominus
!!!OMV: 039
!!!PDT: 1611
!!!AGN:
!!!SMS-siglum: PL-Kc
!!!SMS-shelfmark: 40102 III/1 Saf.
!!!SMS-shelfwork: 002-039 G
!!!SMS-variant:
!!!SMS-altvar:
!!!NIFC-rismSourceID: 990069887
!!!NIFC-rismChildID: 990069887
!!!NIFC-islandoraID: none
!!!URL-pdf-islandora:
!!!URL-scan: https://cyfrowe.mnk.pl/dlibra/publication/24235/edition/23926/content?ref=desc @EN{Scan on The National Museum in Krakow Website} @PL{Skany w portalu Biblioteka Cyfrowa Muzeum Narodowego w Krakowie}
!!!IIIF:
!!!ONB-nifc: UWAGA: str. 64-65. Numer w źródle: 46. Uwaga: W xml metrum 2/1 do źródłowego C| i odpowiednio 3/1 do 3/2
!!!AIN: 5 organ
!!!key:
**kern	**kern	**kern	**kern	**kern
*part5	*part4	*part3	*part2	*part1
*staff5	*staff4	*staff3	*staff2	*staff1
*I"	*I"	*I"	*I"	*I"Organo
*I'	*I'	*I'	*I'	*I'org
*Iorgan	*Iorgan	*Iorgan	*Iorgan	*Iorgan
*ICklav	*ICklav	*ICklav	*ICklav	*I'org
*clefF4	*clefC4	*clefC3	*clefC2	*clefC1
*k[b-]	*k[b-]	*k[b-]	*k[b-]	*k[b-]
*F:	*F:	*F:	*F:	*F:
*M2/1	*M2/1	*M2/1	*M2/1	*M2/1
*met(C|)	*met(C|)	*met(C|)	*met(C|)	*met(C|)
=1	=1	=1	=1	=1
!	!	!	!	!LO:TX:a:t=46. Feria Secunda Paſchae. à 5.
!	!	!	!	!LO:TX:b:t=Surrexit Dominus.
0FF	2.A/	2.c/	1r	1f
.	4B-\	4B-/	.	.
.	2c\	2A/	2r	1cc
.	1A\	1c\	2f\	.
=2-	=2-	=2-	=2-	=2-
[0F	.	.	1cc	2a\
.	2A/	2c/	.	2f/
.	[y1A	1c	2a\	2cc\
.	.	.	2f\	4a\
.	.	.	.	4f/
=3	=3	=3	=3	=3
!	!LO:N:vis=4:xstem:cue	!	!	!
0F]	2A\]	0c	2.a\	2ff\
.	1A	.	.	2cc\
.	.	.	4b-\	.
.	.	.	2cc\	4r
.	.	.	.	4f/
.	4G/	.	4a\	2ff\
.	4F/	.	4a\	.
=4-	=4-	=4-	=4-	=4-
0C	2.G/	2c/	2g\	4ee\
.	.	.	.	4cc\
.	.	2c/	2e/	2gg\
.	4C/	.	.	.
.	2c\	1c	2g\	4ee\
.	.	.	.	4cc\
.	4G/	.	[<2g\	2ff\
.	4C/	.	.	.
=5	=5	=5	=5	=5
4r	2.G/	2.B-/	2g\]	1dd
4GG/	.	.	.	.
2G\	.	.	1d	.
.	4A/	4c/	.	.
2G\	2B-\	1.d	.	4r
.	.	.	.	4g/
4r	1G/	.	2b-\	2dd\
4GG/	.	.	.	.
=6-	=6-	=6-	=6-	=6-
2G\	.	.	1.b-	2dd\
2G\	2B-\	2d\	.	4r
.	.	.	.	4g/
4r	2.G/	4d\	.	2.dd\
4GG/	.	4c/	.	.
[2G\	.	4B-/	2g\	.
.	4A/	4A/	.	4cc\
=7	=7	=7	=7	=7
2G\]	2B-\	2G/	1.g	4dd\
.	.	.	.	4b-\
2C/	2G/	4c/	.	2ee\
.	.	2c/	.	.
2G\	2.G/	.	.	2.dd\
!	!	!LO:N:acc=#	!	!
.	.	8Bn/	.	.
.	.	8A/	.	.
2GG/	.	2B/	2g\	.
.	4G/	.	.	4dd\
=8-	=8-	=8-	=8-	=8-
1C	1G	1c	1.e	1cc
1r	1r	2r	.	2r
.	.	2f\	2a\	2cc\
=9	=9	=9	=9	=9
0r	0r	2d\	2b-\	2dd\
.	.	2.e-X\	2.g\	2.b-\
.	.	4e-\	4g\	4b-\
.	.	2c/	2a\	2cc\
=10-	=10-	=10-	=10-	=10-
1r	1r	1B-	1b-	1dd
2r	2r	2f\	1a	1cc
2F\	2A/	2c/	.	.
=11	=11	=11	=11	=11
2D/	2B-\	2d\	0r	0r
2.E-X\	2.G/	2.B-/	.	.
4E-\	4G/	4B-/	.	.
2BB-/	4B-\	2d\	.	.
.	2B-\	.	.	.
=12-	=12-	=12-	=12-	=12-
1F	.	1c	1r	1r
.	8A/	.	.	.
.	8G/	.	.	.
.	2A/	.	.	.
2BB-/	2B-\	2d\	2r	2r
2BB-/	2B-\	2f\	2b-\	2dd\
=13	=13	=13	=13	=13
2D/	2F/	2f\	2b-\	2ff\
2.E-X\	2.G/	2.B-/	2.g\	2.ee-X\
4E-\	4G/	4B-/	4g\	4ee-\
2BB-/	1B-\	2d\	4g\	2dd\
.	.	.	4f\	.
=14-	=14-	=14-	=14-	=14-
0C	.	2e\	4e/	0cc
.	.	.	4c/	.
.	2A/	2.f\	2f\	.
.	1G	.	1g	.
.	.	8e\	.	.
.	.	8d\	.	.
.	.	2e\	.	.
=15	=15	=15	=15	=15
*M3/2	*M3/2	*M3/2	*M3/2	*M3/2
*	*	*	*col	*
0.FF	0F	0f	0a	0cc
.	1F	1f	1a	1cc
=16-	=16-	=16-	=16-	=16-
!LO:N:vis=0	!	!	!	!
0.r	1.B-	0d	1f	1.dd
.	.	.	0g	.
*	*	*	*Xcol	*
.	2A/	.	.	2cc\
.	2B-\	1d	.	2dd\
.	2G/	.	.	2b-\
=17-	=17-	=17-	=17-	=17-
!LO:N:vis=00	!	!	!	!
00.r	1.A	0c	1e	1.cc
.	.	.	0f	.
.	2G/	.	.	2b-\
.	2A/	1c	.	2cc\
.	2F/	.	.	2a\
=18-	=18-	=18-	=18-	=18-
.	0G	0B-	1.d	1.b-
.	.	.	2c/	2a\
.	1G	1B-	2d/	2b-\
.	.	.	2e/	2g/
=19	=19	=19	=19	=19
*	*col	*	*	*
1r	0F	0c	0f	0a
1r	.	.	.	.
1F	1A	1c	1f	1r
=20-	=20-	=20-	=20-	=20-
!	!	!	!	!LO:N:vis=00
1.E-X	1B-	0e-X	1.g	00.r
.	0c	.	.	.
*	*Xcol	*	*	*
2D/	.	.	2f\	.
2E-X\	.	1c	2g\	.
!	!	!	!LO:SIC:v:s=2e-/	!
2C/	.	.	2e/	.
=21-	=21-	=21-	=21-	=21-
1.D	1A	0F	1.f	.
.	0B-	.	.	.
2C/	.	.	2e/	.
2D/	.	1F	2f\	.
2BB-/	.	.	2d/	.
=22-	=22-	=22-	=22-	=22-
1.C	1G	0c	1.e	1r
.	0A	.	.	1r
2BB-/	.	.	2d/	.
2C/	.	1c	2e/	1cc
2AA/	.	.	2f\	.
=23	=23	=23	=23	=23
0BB-	0F	0.B-	2d/	1.dd
.	.	.	1b-	.
.	.	.	2a\	2cc\
1BB-	1D	.	2b-\	2dd\
.	.	.	2g\	2b-\
*custos:AA	*custos:E	*custos:B	*custos:a	*custos:cc
!!linebreak:original
=24-	=24-	=24-	=24-	=24-
0AA	0E	1r	1.a	1.cc
.	.	1r	.	.
.	.	.	2g\	2b-\
1AA	1C	1A	2a\	2cc\
.	.	.	2f\	2a\
=25-	=25-	=25-	=25-	=25-
0GG	0D	0d	1.g	1.b-
.	.	.	2f\	2a\
1GG	1BB-	1G	2g\	2b-\
.	.	.	2e/	2g/
=26-	=26-	=26-	=26-	=26-
*	*col	*col	*	*
1.FF	0C	0c	1f	1a
.	.	.	1.a	1.cc
2GG/	.	.	.	.
[y1AA	1C	1c	.	.
.	.	.	2g\	2b-\
=27	=27	=27	=27	=27
!LO:N:vis=4:xstem:cue	!	!	!	!
2AA/]	1C	1c	0f	1a
2BB-/	.	.	.	.
0C	0G	0c	.	0g
.	.	.	1e	.
*	*Xcol	*Xcol	*	*
=28-	=28-	=28-	=28-	=28-
*M2/1	*M2/1	*M2/1	*M2/1	*M2/1
*met(C|)	*met(C|)	*met(C|)	*met(C|)	*met(C|)
1FF	1.F	2c\	2.f\	4a\
.	.	.	.	4f/
.	.	1A/	.	2cc\
.	.	.	4f\	.
=29-	=29-	=29-	=29-	=29-
4r	.	.	2cc\	2a\
4FF/	.	.	.	.
2F\	2A/	1c	2a\	4r
.	.	.	.	4f/
2F\	1A	.	4r	2cc\
.	.	.	4f\	.
4r	.	[2c/	2cc\	2a\
4FF/	.	.	.	.
=30	=30	=30	=30	=30
2F\	2A/	2c/]	4a\	4r
.	.	.	4a\	4f/
4C/	2G/	2c/	2e/	2cc\
4C/	.	.	.	.
4.D/	4.F/	2.f\	4f\	4a\
.	.	.	4.b-\	2dd\
8C/	8E/	.	.	.
4BB-/	4D/	.	.	.
.	.	.	8a\	.
4C/	4G/	4e-X\	8g\	2cc\
.	.	.	8f\	.
=31-	=31-	=31-	=31-	=31-
2GG/	2G/	2d\	2g\	.
!	!	!	!	!LO:N:acc=#
.	.	.	.	8bn\
.	.	.	.	8a\
2G\	2G/	2d\	2g\	2b\
1C	2G/	4c/	4e/	4cc\
.	.	2c/	2e/	2g/
.	2r	.	.	.
.	.	4A/	4f\	4a\
=32	=32	=32	=32	=32
1r	1r	4.B-/	4.d/	4.f/
.	.	8B-/	8d/	8f/
.	.	2G/	4d/	2b-\
.	.	.	2g\	.
2r	2r	2d\	.	2a\
.	.	.	4f#X\	.
4r	4r	4G/	2g\	2g/
!	!LO:N:acc=#	!	!	!
4G\	4Bn\	4d\	.	.
=33-	=33-	=33-	=33-	=33-
4E\	4c\	4e\	1r	1r
4.F\	4.A/	4.c/	.	.
8F\	8A/	8c/	.	.
4C/	2c\	4e\	.	.
2G\	.	2d\	2r	2r
!	!LO:N:acc=#	!	!	!
.	4Bn\	.	.	.
4C/	4c\	4e\	4r	4r
4C/	4G/	4c/	4e/	4cc\
=34	=34	=34	=34	=34
4GG/	4G/	4d\	4g\	4b-\
4.BB-/	4.D/	4.d\	4.f\	4.b-\
8BB-/	8D/	8d\	8f\	8b-\
4FF/	4F/	2c/	4f\	4a\
0C	2E/	.	2g\	2g/
.	.	4B-/	.	.
.	2F/	2A/	2c/	2.f/
=35-	=35-	=35-	=35-	=35-
.	1G	1G	1c	.
.	.	.	.	8e/
.	.	.	.	8d/
.	.	.	.	2e/
=36-	=36-	=36-	=36-	=36-
*M3/2	*M3/2	*M3/2	*M3/2	*M3/2
0.FF	0F	0A	0c	0f
.	1F	1A	1f	1cc
=37	=37	=37	=37	=37
!LO:N:vis=00	!	!	!	!
00.r	1.B-	0d	1f	1.dd
.	.	.	0g	.
.	2A/	.	.	2cc\
.	2B-\	1d	.	2dd\
.	2G/	.	.	2b-\
=38-	=38-	=38-	=38-	=38-
.	1.A	0c	1e	1.cc
.	.	.	1f	.
.	2G/	.	.	2b-\
.	2A/	1c	1f	2cc\
.	2F/	.	.	2a\
=39-	=39-	=39-	=39-	=39-
!LO:N:vis=0	!	!	!	!
0.r	0G	0B-	1.d	1.b-
.	.	.	2c/	2a\
.	1G	1B-	2d/	2b-\
.	.	.	2e/	2g/
=40-	=40-	=40-	=40-	=40-
*	*col	*	*	*
1r	0F	0c	0f	0a
1r	.	.	.	.
1F	1A	1c	1f	1r
=41	=41	=41	=41	=41
!	!	!	!	!LO:N:vis=00
1.E-X	1B-	0e-X	1.g	00.r
.	0c	.	.	.
*	*Xcol	*	*	*
2D/	.	.	2f\	.
2E-\	.	1c	2g\	.
!	!	!	!LO:SIC:v:s=2e-/	!
2C/	.	.	2e/	.
=42-	=42-	=42-	=42-	=42-
1.D	1A	0F	1.f	.
.	0B-	.	.	.
2C/	.	.	2e/	.
2D/	.	1F	2f\	.
2BB-/	.	.	2d/	.
=43-	=43-	=43-	=43-	=43-
1.C	1G	0c	1.e	1r
.	0A	.	.	1r
2BB-/	.	.	2d/	.
2C/	.	1c	2e/	1cc
2AA/	.	.	2f\	.
=44-	=44-	=44-	=44-	=44-
0BB-	0F	0.B-	2d/	1.dd
.	.	.	1b-	.
.	.	.	2a\	2cc\
1BB-	1D	.	2b-\	2dd\
.	.	.	2g\	2b-\
=45	=45	=45	=45	=45
0AA	0E	1r	1.a	1.cc
.	.	1r	.	.
.	.	.	2g\	2b-\
1AA	1C	1A	2a\	2cc\
.	.	.	2f\	2a\
=46-	=46-	=46-	=46-	=46-
0GG	0D	0d	1.g	1.b-
.	.	.	2f\	2a\
1GG	1BB-	1G	2g\	2b-\
.	.	.	2e/	2g/
*custos:FF	*custos:C	*custos:c	*custos:f	*custos:a
!!pagebreak:original
=47	=47	=47	=47	=47
*	*col	*col	*	*
1.FF	0C	0c	1f	1a
.	.	.	1.a	1.cc
2GG/	.	.	.	.
1.AA	1C	1c	.	.
.	.	.	2g\	2b-\
=48-	=48-	=48-	=48-	=48-
.	1C	1c	0f	1a
2BB-/	.	.	.	.
0C	0G	0c	.	0g
.	.	.	1e	.
*	*Xcol	*Xcol	*	*
=49	=49	=49	=49	=49
*M2/1	*M2/1	*M2/1	*M2/1	*M2/1
*met(C|)	*met(C|)	*met(C|)	*met(C|)	*met(C|)
2FF/	2F/	1.c	00f	2.a\
2.F\	1A	.	.	.
.	.	.	.	4b-\
.	.	.	.	2cc\
4E\	.	.	.	.
4D/	2A/	1F/	.	2.ff\
4C/	.	.	.	.
=50-	=50-	=50-	=50-	=50-
2.BB-/	2.B-\	.	.	.
.	.	.	.	4ee\
.	.	1B-	.	1dd
4C/	8A/	.	.	.
.	8G/	.	.	.
2D/	4F/	.	.	.
.	4G/	.	.	.
2AA/	2A/	2c/	.	[<2cc\
=51	=51	=51	=51	=51
0BB-	0F	0d	0f	2cc\]
.	.	.	.	4b-\
.	.	.	.	4a\
.	.	.	.	4b-\
.	.	.	.	4f/
.	.	.	.	1b-\
=52-	=52-	=52-	=52-	=52-
0FFl	0Fl	0cl	0fl	.
.	.	.	.	4a\
.	.	.	.	4g/
.	.	.	.	1al
==	==	==	==	==
*-	*-	*-	*-	*-
!!!system-decoration: [(s1,s2,s3,s4,s5)]
!!!RDF**kern: l = terminal long
!!!RDF**kern: i = editorial accidental
!!!RDF**kern: > = above
!!!RDF**kern: < = below
!!!ENC: Katarzyna Serwa
!!!END: 2021-12-25
!!!ENC: Andrzej Gręziak
!!!END: 2021-12-21
!!!YEC: Copyright 2022 Narodowy Instytut Fryderyka Chopina (https://polishscores.org)
!!!YEM: License CC-BY-4.0 (https://creativecommons.org/licenses/by/4.0)
